X:213
T: ES SPIELT EIN GRAF MIT EINER MAGD
N: E0110D
O: Europa, Mitteleuropa, Deutschland, Wetterau
R: erzaehlendes Volks - Lied, Sage, Liebe, Leid, Tod
M: 3/4
L: 1/8
K: G
D | GAB3A | _Bcd3
B | cde2d2 | c2_B2z
G | BdA3c | _BdG3
A | Bcd2B2 | A2G2z

